X: 325
T: Qing ge
%%abc-version 2.0
%%abcx-abcm2ps-target-version 5.9.1 (29 Sep 2008)
%%abc-creator hum2abc beta
%%abcx-conversion-date 2013/10/02 07:52:30
%%abc-edited-by Helmut Schaffrath
%%humdrum-veritas 2061974344
%%humdrum-veritas-data 84126882
%%continueall 1
%%barnumbers 0
L: 1/8
M: 2/4
K: A
cB2E [I:setbarnb 1]| 
e4 | 
cB2E | 
e4 | 
cB2A | 
B2e a | 
GB2F | 
E4 | 
A2G F | 
E2E2 | 
B2B3/ e/ | 
e4 | 
c B/ A/E2 | 
B> B e A | 
GB2F | 
E4 |]  



